X:1
T:The Angels’ Sweet Refrain
T:The Angels’ Sweet Refrain
T: Isaac Hickman Meredith
T:Grant Colfax Tullar, 1903
T:Public Domain Courtesy of the Cyber Hymnal™
T:Public Domain Courtesy of the Cyber Hymnal™
C:Isaac Hickman Meredith
Z:Public Domain
Z:Courtesy of the Cyber Hymnal™
%%score ( 1 2 ) 3
L:1/8
Q:1/4=105
M:4/4
K:F
V:1 treble 
V:2 treble 
V:3 bass 
V:1
 A^GAG [CFA]2 [FAd]2 | [FAd]4 [CFA]4 | A^GAG [CFA]2 [CFAc]2 | [EBc]8 | BABA | [CEGB]2 [GBe]2 | %6
w: 1.~As the shep- herds watched at|mid- night|On the hills so far a-|way,|Sud- den- ly a|light shone|
w: 2.~All the earth was clothed with|beau- ty|When there came that an- gel|throng,|Ev- ery heart was|filled with|
w: 3.~Though we could not hear the|an- gels|Sing- ing forth their glad re-|frain;|We can cel- e-|brate His|
 [GBe]4 [CEB]4 | BABc [GBd]2 [GBe]2 | [CFA]8 | A^GAG [CFA]2 [FAd]2 | [FAd]4 [CFA]4 | %11
w: ’round them,|Turn- ing mid- night in- to|day.|Then each heart was filled with|won- der,|
w: glad- ness|As they list- ened to the|song;|Ne- ver had they heard such|mu- sic,|
w: birth- day|As it comes to us a-|gain.|We can, like the shep- herds,|wor- ship,|
 AA^GA [D=FAd]2 [CDFA]2 | [B,DGB]8 | FFEF [=A,=DG]2 [A,DF]2 | [CFAc]4 [CFA]4 | %15
w: For they could not un- der-|stand|Why the an- gel host that|ga- thered|
w: Or be- held such won- drous|light,|Fill- ing all the earth with|glo- ry,|
w: Lay our lives at Je- sus’|feet;|With our hearts we can a-|dore Him|
 AGAG [A,FA]2 [A,FG]2 | (z2 [FB]2 [EA]2 [EG]2) ||"^Refrain" z2 [FAc]2 (z2 [CFA]2) | dcAG [A,CF]4 | %19
w: Brought to them such mu- sic|||grand. * * * *|
w: As the an- gel brought that|||night. An- gels, sing your|
w: And the an- gels’ song re-|||peat. * * * *|
 CFGA [FAc]2 [FAd]2 | [EBd]4 [B,CE]4 | BABc [GBd]2 [GBe]2 | [FAd]4 [FAc]4 | c=Bcd [GBe]2 [FGBd]2 | %24
w: |||||
w: sweet re- frain— Glo- ry in|the high-|est, glo- ry! Tell the wait-|ing earth|your sto- ry Of the Christ|
w: |||||
 c8 ([FB]2 [EA]2 [EG]2) | z2 [FAc]2 (z2 [CFA]2) | dcAG [A,CF]4 | AA^GA [D=FAd]2 [DFA]2 | %28
w: ||||
w: Who came * *||* to reign. Sing— sing|that sweet song a- gain, Earth|
w: ||||
 [DAc]4 [DGB]4 | FFEF [=A,=DG]2 [A,DF]2 | [CFAc]4 [CFA]4 | AGAG [CFA]2 [_B,CEG]2 | [A,CF]8 |] %33
w: |||||
w: and sky|re- peat the sto- ry— Glo-|ry in|the high- est, glo- ry! On|earth|
w: |||||
V:2
 [CF]2 [CF]2 x4 | x8 | [CF]2 [CF]2 x4 | x8 | [CEG]2 [CEG]2 | x4 | x8 | [CEG]2 [CEG]2 x4 | x8 | %9
 [CF]2 [CF]2 x4 | x8 | [CD^F]2 [CDF]2 x4 | x8 | [_A,_D]2 [A,D]2 x4 | x8 | [=B,F]2 [B,F]2 x4 | c8 || %17
 f4 c4 | [FA]2 [B,CE]2 x4 | [A,C]2 [CF]2 x4 | x8 | [CE]2 [CE]2 x4 | x8 | [EG]2 [EG]2 x4 | %24
 [EG]2 x12 | f4 c4 | [FA]2 [B,CE]2 x4 | [CD^F]2 [CDF]2 x4 | x8 | [_A,_D]2 [A,D]2 x4 | x8 | %31
 [=B,F]2 [B,F]2 x4 | x8 |] %33
V:3
 [F,,F,]2 [C,,C,]2 [F,,F,]2 [C,,C,]2 | ([F,,F,]2 [C,,C,]2) ([F,,F,]2 [C,,C,]2) | %2
 [F,,F,]2 [C,,C,]2 [F,,F,]2 [C,,C,]2 | ([G,,G,]2 [C,,C,]2 [G,,G,]2 [C,,C,]2) | [G,,G,]2 [C,,C,]2 | %5
 [G,,G,]2 [C,,C,]2 | ([G,,G,]2 [C,,C,]2) ([G,,G,]2 [C,,C,]2) | %7
 [G,,G,]2 [C,,C,]2 [G,,G,]2 [C,,C,]2 | ([F,,F,]2 [E,,E,]2 [D,,D,]2 [C,,C,]2) | %9
 [F,,F,]2 [C,,C,]2 [F,,F,]2 [C,,C,]2 | ([F,,F,]2 [C,,C,]2) ([F,,F,]2 [C,,C,]2) | %11
 [D,,D,]2 [^E,,^F,]2 [D,,D,]2 [^F,,F,]2 | ([G,,G,]2 [D,,D,]2 [G,,G,]2 [D,,D,]2) | %13
 [_D,,_D,]2 [D,,D,]2 [D,,D,]2 [D,,D,]2 | ([C,,C,]2 [C,C]2) ([A,,A,]2 [F,,F,]2) | %15
 [D,,D,]2 [G,,,G,,]2 [D,,D,]2 [G,,,G,,]2 | (C,,2 D2 C2 B,2) || %17
 ([F,,F,]2 [C,,C,]2) ([F,,F,]2 [C,,C,]2) | [F,,F,]2 [C,,C,]2 ([F,,F,]2 [C,,C,]2) | %19
 [F,,F,]2 [C,,C,]2 [F,,F,]2 [C,,C,]2 | ([G,,G,]2 [C,,C,]2) ([G,,G,]2 [C,,C,]2) | %21
 [G,,G,]2 [C,,C,]2 [G,,G,]2 [C,,C,]2 | ([F,,F,]2 [C,,C,]2) ([F,,F,]2 [C,,C,]2) | %23
 [G,,G,]2 [G,,G,]2 [G,,,G,,]2 [G,,,G,,]2 | (C,,2 D2 C2 B,2) x6 | %25
 ([F,,F,]2 [C,,C,]2) ([F,,F,]2 [C,,C,]2) | [F,,F,]2 [C,,C,]2 ([F,,F,]2 [C,,C,]2) | %27
 [D,,D,]2 [D,,D,]2 [D,,D,]2 [D,,D,]2 | ([^F,,^F,]2 [F,,F,]2) ([G,,G,]2 [G,,G,]2) | %29
 [_D,,_D,]2 [D,,D,]2 [D,,D,]2 [D,,D,]2 | ([C,,C,]2 [C,C]2) ([A,,A,]2 [F,,F,]2) | %31
 [D,,D,]2 [G,,,G,,]2 [C,,C,]2 [C,,C,]2 | ([F,,F,]2 [C,,C,]2 [F,,,F,,]4) |] %33

